X:9
T: Gábor Áron rézágyúja
M:4/4
L:1/4
K:D
d c e d | B A G F | A E A<F | D2 D2 |
d c e d | B A G F | A E A<F | D2 D2 |
d e f/e/d/c/ | d2 A2 | d e f/e/d/c/ | d2 A2 |
d c e d | B<A G<F | A E G<F | D2 D2 |

